icons/table.svg

<svg xmlns="http://www.w3.org/2000/svg" viewBox="0 0 24 24">
  <path fill-rule="evenodd" d="M16 8h-6V6h10v2h-4zm0 5h4v-3h-4v3zm0 5h4v-3h-4v3zm-6 0h4v-3h-4v3zm-6 0h4v-3H4v3zm0-5h4v-3H4v3zm0-5h4V6H4v2zm6 5h4v-3h-4v3zm10-9H4c-1.1 0-2 .9-2 2v12c0 1.1.9 2 2 2h16c1.1 0 2-.9 2-2V6c0-1.1-.9-2-2-2z"/>
</svg>

<?xml version="1.0" encoding="UTF-8" standalone="no"?>
<svg width="24px" height="24px" viewBox="0 0 24 24" version="1.1" xmlns="http://www.w3.org/2000/svg" xmlns:xlink="http://www.w3.org/1999/xlink">
    <!-- Generator: Sketch 40.1 (33804) - http://www.bohemiancoding.com/sketch -->
    <title>table</title>
    <desc>Created with Sketch.</desc>
    <defs></defs>
    <g id="Page-1" stroke="none" stroke-width="1" fill="none" fill-rule="evenodd">
        <g id="table" fill="#777777">
            <path d="M16,8 L14,8 L10,8 L10,6 L20,6 L20,8 L16,8 Z M16,13 L20,13 L20,10 L16,10 L16,13 Z M16,18 L20,18 L20,15 L16,15 L16,18 Z M10,18 L14,18 L14,15 L10,15 L10,18 Z M4,18 L8,18 L8,15 L4,15 L4,18 Z M4,13 L8,13 L8,10 L4,10 L4,13 Z M4,8 L8,8 L8,6 L4,6 L4,8 Z M10,13 L14,13 L14,10 L10,10 L10,13 Z M20,4 L10,4 L8,4 L4,4 C2.9,4 2,4.9 2,6 L2,8 L2,10 L2,13 L2,15 L2,18 C2,19.1 2.9,20 4,20 L8,20 L10,20 L14,20 L16,20 L20,20 C21.1,20 22,19.1 22,18 L22,15 L22,13 L22,10 L22,8 L22,6 C22,4.9 21.1,4 20,4 L20,4 Z" id="Page-1"></path>
        </g>
    </g>
</svg>
